X:1
T:Title
%%score { 1 | 2 | 3 | 4 }
L:1/8
Q:1/4=120
M:4/4
K:Db
V:1 treble nm="S."
V:2 treble 
V:3 treble-8 
V:4 bass 
V:1
"^Andante" z4 z2"^Translation by Jean Racine (1639-99)""^of a medieval Latin hymn,""^Consors paterni luminis" (F2 | %1
w: |
 A4 G4 | F6) (A2 | d2 c2 B2 A2 | A2"^Cantique de Jean Racine" G2 F2) (F2 | E4 G4 | F6) (F2 | %7
w: ||||||
 E4 B4 | =A4) z2 (F2 | d2 c2 B2 A2) | (A2 G2 F2"^Gabriel Fauré""^(1845-1924)" A2) | (F4 E4) | %12
w: |||||
[M:4/4] D4 z4 | z8 | z8 | z8 | z8 | z8 | z8 | z8 | z4 z2!pp! A2 | d2 c2 B2 c2 | B4 A2 c2 | B4 d4 | %24
w: ||||||||Nous|rom- pons le si-|len- ce, Di-|\-vin Sau-|
"^cresc." c6 c2 | B2 B2 d2 d2 | c6 A2 |!f! (f2 c2) (d2 f2) | e2"^dim." d2 c2 c2 |!p! c4 B4 | %30
w: veur, jet-|te sur nous les|yeux, Di-|vin * Sau *|\-veur jet- te sur|nous les|
 A4 z2 C2 | E4 D4 | C6 E2 | A2 =G2 F2 E2 | E2 D2 C2 C2 | B,4 D4 | C6 C2 | B,4 D4 | %38
w: yeux! *||||||||
 C4- C2"^dolce" c2 | c4 B4 | =G2 =E2 F2 GG | A4 B2 c2 | c4 d2 d2 |"^cresc." d4 c4 | =A2 A2 B2 c2 | %45
w: * * Ré-|pands sur|nous le feu de ta|grâ- ce puis-|san- te, que|tout l'en-|\-fer, que tout l'en-|
!f! d2 d2 e2 f2 | f3 g g2!p!"^subito" g2 | (f2 c2) c4 | c2 (de) d2 d2 | c2 =G2 G2 G2 | %50
w: fer fuie au son|de ta voix, Dis-|si * pe|le som * meil d'une|â- me lan- guis-|
 (=G2 =AB) A2 z2 | z8 | z2!mf! B2 f2 B2 | c2 cc c2 de | (e2 d2) z4 | z8 | z2!f! B2 f2 d2 | %57
w: san * * te,||qui la con-|duit à l'ou- bli de tes|lois, *||qui la con-|
 e2 ee e2 de | f4 z4 | z8 | z8 | z8 | z8 | z8 | z8 | z8 | z4 z2!p! A2 | d2 c2 B2 A2 | A4 G2 B2 | %69
w: duit à l'ou- bli de tes|lois!||||||||Re-|çois les chants qu'il|of- fre, à|
"^cresc." e2 d2 c2 B2 | B4 A2 A2 |!f!"^sempre" (f2 c2) (d2 f2) | (e2 d2) c2 c2 | c4 B3 B | %74
w: ta gloi- re~im- mor-|\-tel- le, et|de * tes *|dons * qu'il re-|tour- ne com-|
!>(! A6!pp! A2!>)! | (B2 F2) (G2 B2) |!<(! (A2 e2)!<)!!>(! d2 F2!>)! |!pp! F4 E3 D | D6 F2 | %79
w: blé, Et|de * tes *|dons * qu'il re-|tour- ne com-|blé! *|
 A4 G4 | F6!pp! F2 | E4 G4 | F6 F2 | d2 c2 B2 A2 | A2 G2!ppp! F2 !courtesy!_A2 |"^poco rall." F8 | %86
w: |* Et|de tes|dons *||* * qu'il re-|tour-|
 E6 D2 | D8- | !fermata!D8 |] %89
w: ne com-|blé!||
V:2
 z8 | z8 | z8 | z8 | z8 | z8 | z8 | z8 | z8 | z8 | z8 | z8 |[M:4/4] z8 | z8 | z8 | z8 | z8 | z8 | %18
w: ||||||||||||||||||
 z4 z2!pp! F2 | A2 A2 G2 G2 | F6 F2 | F2 F2 F2 =E2 | =E4 F2 A2 | A4 =G4 | %24
w: De|la pai- si- ble|nuit, nous|rom- pons le si-|len- ce, Di-|\-vin Sau-|
"^cresc." E2 =E2 F2 !courtesy!_G2 | F4 =G4 | (=G4 A2) _G2 |!f! F4 (F2 _c2) | B2"^dim." =G2 A2 F2 | %29
w: veur, jet- te sur|nous les|yeux, * Di-|vin Sau *|\-veur jet- te sur|
!p! E4 D4 | C4 z4 | z8 | z8 | z8 | z8 | z8 | z8 | z8 | z4 z2"^dolce" E2 | E4 D4 | C2 C2 =D2 =EE | %41
w: nous les|yeux!||||||||Ré-|pands sur|nous le feu de ta|
 F4 =G2 =A2 | =A4 B2 B2 |"^cresc." B4 !courtesy!_G4 | F2 F2 F2 F2 |!f! F2 B2 B2 A2 | %46
w: grâ- ce puis-|san- te, que|tout l'en-|\-fer, que tout l'en-|fer fuie au son|
 A3 G G2!p!"^subito" B2 | (=A2 E2) (E2 B2) | =A2 A2 B2 F2 | =E2 B,2 B,2 F2 | =E4 F2 z2 | %51
w: de ta voix, Dis-|si * pe *|le som- meil d'une|â- me lan- guis-|san- te,|
 z4 z2!mf! F2 | B6 B2 | B2 BB =A2 AA | (=A2 B2) z4 | z4 z2!f! F2 | B6 F2 | A2 AA B2 BB | =A4 z4 | %59
w: qui|la con-|duit à l'ou- bli de tes|lois, *|qui|la con-|duit à l'ou- bli de tes|lois!|
 z8 | z8 | z8 | z8 | z8 | z4 z2!p! F2 | A2 A2 G2 G2 | F4 F4 | F6 F2 | E4 E2 z2 |"^cresc." G6 G2 | %70
w: |||||Re-|çois les chants qu'il|of- fre,|à ta|gloi- re|im- mor-|
 F4 F2 G2 | F4 (F2 _c2) | (B2 =G2) A2 F2 | E4 E3 E | E4!pp!"^subito" F4 | (D2 =D2) (E2 _F2) | %76
w: \-tel- le, et|de tes *|dons * qu'il re-|tour- ne com-|blé, Et|de * tes *|
!<(! (E2 __B2)!<)!!>(! A2 D2!>)! |!pp! C4 C3 D | D6 z2 | z8 | z4 z2!pp! D2 | D4 C4 | D6 z2 | z8 | %84
w: dons * qu'il re-|tour- ne com-|blé!||Et|de tes|dons||
 z4!ppp! C2 D2 |"^poco rall." D8 | C6 D2 | D8- | !fermata!D8 |] %89
w: qu'il re-|tour-|ne com-|blé!||
V:3
 z8 | z8 | z8 | z8 | z8 | z8 | z8 | z8 | z8 | z8 | z8 | z8 |[M:4/4][K:treble-8] z8 | z8 | %14
w: ||||||||||||||
 z4 z2!pp! A2 | d2 c2 B2 A2 | c4 d2 d2 | d4 c4 | d4 d2 d2 | d4 d2 c2 | d6 A2 | B2 c2 d2 c2 | %22
w: No-|tre~u- ni- que~es- pé-|ran- ce, Jour|é- ter-|nel de la|ter- re~et des|cieux, nous|rom- pons le si-|
 c4 c2 e2 | f4 B4 |"^cresc." A2 B2 A2 =A2 | B6 B2 | (B4 A2) c2 |!f! (d2 =A2) (B2 =d2) | %28
w: len- ce, Di-|\-vin Sau-|veur, jet- te sur|nous les|yeux, * Di-|vin * Sau *|
 e2"^dim." B2 A2 A2 |!p! =G4 G4 | A4 z4 | z8 | z8 | z8 | z8 | z8 | z8 | z8 | z4 z2"^dolce" A2 | %39
w: \-veur jet- te sur|nous les|yeux!||||||||Ré-|
 A4 F4 | =E2 c2 c2 BB | (A2 f2) f2 e2 | e4 d2 f2 |"^cresc." f4 e4 | c2 f2 f2 e2 |!f! d2 B2 c2 =d2 | %46
w: pands sur|nous le feu de ta|grâ * ce puis-|san- te, que|tout l'en-|\-fer, que tout l'en-|fer fuie au son|
 =d3 e e2 z2 | z2!p! g2 f2 e2 | e2 (dc) d2 z2 | z2 (d2 c2) B2 | (B2 =A=G) A2 z2 | z2!mf! B2 f2 f2 | %52
w: de ta voix,|Dis- si- pe|le som * meil|lan * guis-|san * * te,|qui la con-|
 (f2 e2) d2 f2 | g4 (fe) (dc) | (c2 B2) z4 | z2!f! B2 f2 f2 | (f2 e2) d2 d2 | c4 B2 B2 | c4 z4 | %59
w: duit * à l'ou-|bli de * tes *|lois, *|qui la con-|duit * à l'ou-|bli de tes|lois!|
 z8 | z4 z2!p! AA | (d2 c2) B2 A2 | c4 d2 d2 | d4 c4 | d4 d2 d2 | d4 d2 c2 | d8 | z2 (A2 d2) c2 | %68
w: |à ce|peu * ple fi-|dè- le pour|te bé-|nir main- te-|nant ras- sem-|\-blé,|à * ta|
 B4 B4 | z2"^cresc." B2 (e2 d2) | c4 c2 c2 | (d2 =A2) (B2 =d2) | (e2 B2) A2 A2 | =G4 G3 G | %74
w: gloi- re|im- mor *|\-tel- le, et|de * tes *|dons * qu'il re-|tour- ne com-|
 A4!pp!"^subito" _c4 | (B2 A2) (G2 =G2) |!<(! (A2 c2)!<)!!>(! d2 B2!>)! |!pp! A4 !courtesy!_G3 G | %78
w: blé, Et|de * tes *|dons * qu'il re-|tour- ne com-|
 F6 z2 | z8 | z4 z2!pp! A2 | (G2 F2) E4 | F6 z2 | z8 | z4!ppp! =A2 _A2 |"^poco rall." B8 | G6 G2 | %87
w: blé!||Et|de * tes|dons||qu'il re-|tour-|ne com-|
 F8- | !fermata!F8 |] %89
w: blé!||
V:4
 z8 | z8 | z8 | z8 | z8 | z8 | z8 | z8 | z8 | z8 | z8 | z8 |[M:4/4] z4 z2!pp! F,>F, | A,4 G,3 G, | %14
w: ||||||||||||Ver- be~é-|gal au Très-|
 F,6 F,2 | F,2 F,2 D,2 A,2 | (A,2 G,2) F,2 F,2 | E,4 G,4 | F,4 F,2 F,2 | F,4 E,2 E,2 | D,4 C,4 | %21
w: Haut No-|tre~u- ni- que~es- pé-|ran * ce, Jour|é- ter-|nel de la|ter- re~et des|cieux, nous|
 B,,2 A,,2 =G,,2 C,2 | F,,4 F,2 C,2 |"^This edition produced by Andrew Sims 2010" D,4 E,4 | %24
w: rom- pons le si-|len- ce, Di-|\-vin Sau-|
"^cresc." A,2 =G,2 F,2 E,2 | D,4 E,4 | (=E,4 F,2) A,2 |!f! (D,2 F,2) (B,2 A,2) | %28
w: veur, jet- te sur|nous les|yeux, * Di-|vin * Sau *|
 =G,2"^dim." =E,2 F,2 =D,2 |!p! E,4 E,4 | A,,4 z4 | z8 | z8 | z8 | z8 | z8 | z8 | z8 | %38
w: \-veur jet- te sur|nous les|yeux!||||||||
 z4 z2"^dolce" A,,2 | A,,4 B,,4 | C,2 C,2 C,2 C,C, | F,4 F,2 F,2 | B,,4 B,,2 B,2 | %43
w: Ré-|pands sur|nous le feu de ta|grâ- ce puis-|san- te, que|
"^cresc." B,4 E,4 | F,2 F,2 =G,2 =A,2 |!f! B,2 B,2 B,2 B,2 | E,3 E, E,2 z2 | %47
w: tout l'en-|\-fer, que tout l'en-|fer fuie au son|de ta voix,|
 z2!p! B,2 =A,2 !courtesy!_G,2 | F,2 F,2 B,,2 z2 | z2 (F,2 =E,2) !courtesy!_D,2 | %50
w: Dis- si- pe|le som- meil|lan * guis-|
 C,4 F,,2!mf! F,2 | B,4 A,4 | G,4 F,2 D,2 | E,4 F,2 F,2 | G,4 z2!f! F,2 | B,4 (B,2 A,2) | %56
w: san- te, qui|la con-|duit à l'ou-|bli de tes|lois, qui|la con *|
 G,4 F,2 B,2 | A,4 G,2 G,2 |!>(! F,6!p! F,2!>)! | A,2 A,2 G,2 G,2 | F,4 F,2 F,2 | F,4 D,2 A,2 | %62
w: duit à l'ou-|bli de tes|lois! Ô|Christ sois fa- vo-|\-ra- ble~â ce|peu- ple fi-|
 (A,2 G,2) F,2 F,2 | E,4 G,4 | F,4 F,2 F,2 | F,4 E,2 E,2 | D,2 A,,2 D,2 C,2 | B,,4 B,,4 | %68
w: dè * le pour|te bé-|nir main- te-|nant ras- sem-|\-blé, Re- çois les|chants qu'il|
 E,2 B,,2 E,2 D,2 |"^cresc." C,4 C,4 | (F,,2 C,2) F,2 E,2 | (D,2 F,2) (B,2 A,2) | %72
w: of- fre~à ta gloi-|re~im- mor-|\-tel * le, et|de * tes *|
 (=G,2 =E,2) F,2 =D,2 | E,4 !courtesy!_D,3 D, | C,4!pp!"^subito" D,4 | (G,,2 B,,2) (E,2 D,2) | %76
w: dons * qu'il re-|tour- ne com-|blé, Et|de * tes *|
!<(! (C,2 G,2)!<)!!>(! F,2 =G,2!>)! |!pp! A,4 A,,3 A,, | D,6 z2 | z8 | %80
w: dons * qu'il re-|tour- ne com-|blé!||
 z4"^English translation:""^Word, equal to the Almighty, our only hope,""^Eternal light of the earth and the heavens;""^We break the peaceful night's silence,""^Divine Saviour, cast your eyes upon us!""^Spread the fire of your mighty grace upon us""^May the entire hell flee at the sound of your voice;""^Disperse from any slothful soul the drowsiness""^Which induces it to forget your laws!""^Oh Christ, look with favour upon this faithful people""^Which has now gathered to bless you.""^Receive its singing, offered to your immortal glory,""^And may it come back with the gifts you have bestowed upon it!" z2!pp! A,,2 | %81
w: Et|
 A,,4 A,,4 | D,6 z2 | z8 | z4!ppp! F,,2 F,,2 |"^poco rall." G,,8 | A,,6 A,,2 | D,8- | %88
w: de tes|dons||qu'il re-|tour-|ne com-|blé!|
 !fermata!D,8 |] %89
w: |

